X:1
T:Beautiful Zion
T:Beautiful Zion
T:Thomas Jefferson Cook
T:George Gill, 1858
T:Public Domain Courtesy of the Cyber Hymnal™
C:Thomas Jefferson Cook
Z:Public Domain
Z:Courtesy of the Cyber Hymnal™
%%score ( 1 2 ) 3
L:1/8
Q:1/4=85
M:3/4
K:Eb
V:1 treble 
V:2 treble 
V:3 bass 
V:1
 (3[GB][GB][GB] | [Ge]2 [GB]2 [EG]>[Ac] | ([GB]2 [EG]) z (3[DF][DF][DF] | [DB]2 [DF]2 (3(FG)[DF] | %4
w: 1.~Beau- ti- ful|Zi- on, built a-|bove, * Beau- ti- ful|ci- ty that * I|
w: 2.~Beau- ti- ful|Heav’n, where all is|light, * Beau- ti- ful|an- gels clothed * in|
w: 3.~Beau- ti- ful|crowns on ev- ery|brow, * Beau- ti- ful|palms the conquer- * ors|
w: 4.~Beau- ti- ful|throne for Christ our|king, * Beau- ti- ful|songs the an- * gels|
 E3 z (3[GB][GB][GB] | [Ge]2 [GB]2 [EG]>[Ac] | ([GB]2 [EG]) z (3[DF][DF][DF] | %7
w: love; Beau- ti- ful|gates of pearl- y|white, * Beau- ti- ful|
w: white; Beau- ti- ful|strains that ne- ver|tire, * Beau- ti- ful|
w: show; Beau- ti- ful|robes the ran- somed|wear, * Beau- ti- ful|
w: sing; Beau- ti- ful|rest all wan- derings|cease, * Beau- ti- ful|
 [DB]2 [DF] z [Fd]>[Ec] | [DB]3 z3 |[Q:1/4=120] [DF]3 [DF]2 [DF] | [EG]3- [EG]2 [EG] | %11
w: tem- ple— God its|light.|He who was|slain * on|
w: harps thro’ all the|choir—|There shall I|join * the|
w: all who en- ter|there—|Thi- ther I|press * with|
w: home of per- fect|peace—|There shall my|eyes * the|
 ([FA]4 [GB])[FA] | [EG]3 z3 | [DF]3 [DF]2 [DF] | [EG]3- [EG]2 [EG] | ([EG]4 [GB])[FA] | %16
w: Cal- * va-|ry|O- pens those|pearl- * y|gates * to|
w: cho- * rus|sweet,|Wor- ship- ping|at * the|Sav- * ior’s|
w: ea- * ger|feet;|There shall my|rest * be|long * and|
w: Sav- * ior|see;|Haste to His|heav’n- * ly|home * with|
 [EG]3 z3 |:"^Refrain" ([ce]4 [Bd])[Ac] | [GB]3 [EG]3 | ([DF]3 [Ac]2) [GB] | [GB]3 [EG]2 z | %21
w: me.|||||
w: feet.|Zi- * on,|Zi- on,|love- * ly|Zi- on,|
w: sweet.|||||
w: me.|||||
 [ce]4 [Bd][Ac] | [GB]3 [EG]3 | [DF]2 [DF] [Dc]2 [DB] | E4 :| %25
w: ||||
w: Beau- ti- ful|Zi- on,|ci- ty of our|God.|
w: ||||
w: ||||
V:2
 x2 | x6 | x6 | x4 D2 | E3 x3 | x6 | x6 | x6 | x6 | x6 | x6 | x6 | x6 | x6 | x6 | x6 | x6 |: x6 | %18
 x6 | x6 | x6 | x6 | x6 | x6 | E4 :| %25
V:3
 (3[E,B,][E,B,][E,B,] | [E,B,]2 [E,B,]2 [E,E]>[E,E] | ([E,E]2 [E,B,]) z (3[B,,B,][B,,B,][B,,B,] | %3
 [B,,B,]2 [B,,B,]2 (3:2:2[B,,B,]2 [B,,A,] | [E,G,]3 z (3[E,B,][E,B,][E,B,] | %5
 [E,B,]2 [E,B,]2 [E,E]>[E,E] | ([E,E]2 [E,B,]) z (3[F,B,][F,B,][F,B,] | %7
 [F,B,]2 [F,B,] z [F,=A,]>[F,A,] | [B,,B,]3 z3 | [B,,B,]3 [B,,B,]2 [B,,B,] | %10
 [E,B,]3- [E,B,]2 [E,B,] | [E,B,]3- [E,B,]2 [D,B,] | [E,B,]3 z3 | [B,,B,]3 [B,,B,]2 [B,,B,] | %14
 [E,B,]3- [E,B,]2 [E,B,] | [D,B,]3- [D,B,]2 [D,B,] | [E,B,]3 z3 |: [E,E]3- [E,E]2 [E,E] | %18
 [E,E]3 [E,B,]3 | [B,,B,]3- [B,,B,]2 [B,,B,] | [E,B,]3 [E,B,]2 C | [E,E]4 [E,E][E,E] | %22
 [E,E]3 [E,B,]3 | [B,,B,]2 [B,,B,] [B,,A,]2 [B,,A,] | [E,G,]4 :| %25

